**harm	**harte	**timestamp	**phrase	**leadinstrument	**kern
*M4/4	*M4/4	*	*	*	*
*F:	*F:	*	*	*	*F:
1r;	N	0	.	r	1r;
=1	=1	=1	=1	=1	=1
*>A_intro	*>A_intro	*>A_intro	*>A_intro	*>A_intro	*>A_intro
2I	F:maj	0.604	newline	guitar	2F 2a 2cc
2V	C:maj	1.357	.	guitar	2C 2e 2g
=2	=2	=2	=2	=2	=2
2IV	B-:maj	2.109	.	guitar	2B- 2dd 2ff
2V	C:maj	2.862	.	guitar	2C 2e 2g
=3	=3	=3	=3	=3	=3
2IV	B-:maj	3.615	.	guitar	2B- 2dd 2ff
2V	C:maj	4.368	.	guitar	2C 2e 2g
=4	=4	=4	=4	=4	=4
1I	F:maj	5.121	.	guitar	1F 1a 1cc
=5	=5	=5	=5	=5	=5
1I	F:maj	6.626	.	guitar	1F 1a 1cc
=6	=6	=6	=6	=6	=6
*>B_verse	*>B_verse	*>B_verse	*>B_verse	*>B_verse	*>B_verse
1I	F:maj	8.132	newline	voice	1F 1a 1cc
=7	=7	=7	=7	=7	=7
1I	F:maj	9.589	.	voice	1F 1a 1cc
=8	=8	=8	=8	=8	=8
1IV	B-:maj	11.047	.	voice	1B- 1dd 1ff
=9	=9	=9	=9	=9	=9
1IV	B-:maj	12.504	.	voice	1B- 1dd 1ff
=10	=10	=10	=10	=10	=10
1IV	B-:maj	13.961	newline	voice	1B- 1dd 1ff
=11	=11	=11	=11	=11	=11
1I	F:maj	15.435	.	voice	1F 1a 1cc
=12	=12	=12	=12	=12	=12
1I	F:maj	16.91	.	voice	1F 1a 1cc
=13	=13	=13	=13	=13	=13
1-VII	E-:maj	18.384	.	voice	1E- 1g 1b-
=14	=14	=14	=14	=14	=14
1V	C:maj	19.858	.	voice	1C 1e 1g
=15	=15	=15	=15	=15	=15
1I	F:maj	21.332	newline	voice	1F 1a 1cc
=16	=16	=16	=16	=16	=16
1I	F:maj	22.784	.	voice	1F 1a 1cc
=17	=17	=17	=17	=17	=17
1IV	B-:maj	24.236	.	voice	1B- 1dd 1ff
=18	=18	=18	=18	=18	=18
1IV	B-:maj	25.688	.	voice	1B- 1dd 1ff
=19	=19	=19	=19	=19	=19
1IV	B-:maj	27.14	newline	voice	1B- 1dd 1ff
=20	=20	=20	=20	=20	=20
1I	F:maj	28.623	.	voice	1F 1a 1cc
=21	=21	=21	=21	=21	=21
1V	C:maj	30.106	.	voice	1C 1e 1g
=22	=22	=22	=22	=22	=22
1-VII	E-:maj	31.589	.	voice	1E- 1g 1b-
=23	=23	=23	=23	=23	=23
1I	F:maj	33.072	.	voice	1F 1a 1cc
=24	=24	=24	=24	=24	=24
*>C_chorus	*>C_chorus	*>C_chorus	*>C_chorus	*>C_chorus	*>C_chorus
1IV	B-:maj	34.555	newline	voice	1B- 1dd 1ff
=25	=25	=25	=25	=25	=25
1IV	B-:maj	36.055	.	voice	1B- 1dd 1ff
=26	=26	=26	=26	=26	=26
1I	F:maj	37.555	.	voice	1F 1a 1cc
=27	=27	=27	=27	=27	=27
1I	F:maj	39.055	.	voice	1F 1a 1cc
=28	=28	=28	=28	=28	=28
2Ic	F:maj/5	40.555	newline	voice	2f 2a 2C
2V	C:maj	41.321	.	voice	2C 2e 2g
=29	=29	=29	=29	=29	=29
2vid	D:min/b7	42.088	.	voice	2d 2f 2a
2Ic	F:maj/5	42.854	.	voice	2f 2a 2C
=30	=30	=30	=30	=30	=30
2IVe	B-:maj/2	43.621	.	voice	2B- 2dd 2ff
2Ic	F:maj/5	44.387	.	voice	2f 2a 2C
=31	=31	=31	=31	=31	=31
2.-VII	E-:maj	45.153	.	voice	2E- 2g 2b-
4-VIId	E-:maj/7	46.303	.	voice	4e- 4g 4b-
=32	=32	=32	=32	=32	=32
1V7	C:7	46.686	.	voice	1C 1e 1g 1b-
=33	=33	=33	=33	=33	=33
*>B2_verse	*>B2_verse	*>B2_verse	*>B2_verse	*>B2_verse	*>B2_verse
1I	F:maj	48.219	newline	voice	1F 1a 1cc
=34	=34	=34	=34	=34	=34
1I	F:maj	49.696	.	voice	1F 1a 1cc
=35	=35	=35	=35	=35	=35
1IV	B-:maj	51.173	.	voice	1B- 1dd 1ff
=36	=36	=36	=36	=36	=36
1IVm7	B-:7	52.65	.	voice	1B- 1dd 1ff 1aa
=37	=37	=37	=37	=37	=37
1IV	B-:maj	54.127	newline	voice	1B- 1dd 1ff
=38	=38	=38	=38	=38	=38
1I	F:maj	55.606	.	voice	1F 1a 1cc
=39	=39	=39	=39	=39	=39
1V	C:maj	57.084	.	voice	1C 1e 1g
=40	=40	=40	=40	=40	=40
1I	F:maj	58.563	.	voice	1F 1a 1cc
=41	=41	=41	=41	=41	=41
1I	F:maj	60.042	.	voice	1F 1a 1cc
=42	=42	=42	=42	=42	=42
*>D_interlude	*>D_interlude	*>D_interlude	*>D_interlude	*>D_interlude	*>D_interlude
1I	F:maj	61.52	newline	guitar organ	1F 1a 1cc
=43	=43	=43	=43	=43	=43
1IV	B-:maj	63.023	.	guitar organ	1B- 1dd 1ff
=44	=44	=44	=44	=44	=44
2-VII	E-:maj	64.526	.	guitar organ	2E- 2g 2b-
2IVb	B-:maj/3	65.277	.	guitar organ	2b- 2D 2ff
=45	=45	=45	=45	=45	=45
1V7	C:7	66.028	.	guitar organ	1C 1e 1g 1b-
=46	=46	=46	=46	=46	=46
*>B3_verse	*>B3_verse	*>B3_verse	*>B3_verse	*>B3_verse	*>B3_verse
1I	F:maj	67.531	newline	voice	1F 1a 1cc
=47	=47	=47	=47	=47	=47
1I	F:maj	69.027	.	voice	1F 1a 1cc
=48	=48	=48	=48	=48	=48
1IV	B-:maj	70.523	.	voice	1B- 1dd 1ff
=49	=49	=49	=49	=49	=49
1IVm7	B-:7	72.019	.	voice	1B- 1dd 1ff 1aa
=50	=50	=50	=50	=50	=50
1IV	B-:maj	73.515	newline	voice	1B- 1dd 1ff
=51	=51	=51	=51	=51	=51
1I	F:maj	74.974	.	voice	1F 1a 1cc
=52	=52	=52	=52	=52	=52
1I	F:maj	76.432	.	voice	1F 1a 1cc
=53	=53	=53	=53	=53	=53
*M5/4	*M5/4	*M5/4	*M5/4	*M5/4	*M5/4
2.-VII	E-:maj6	77.891	.	voice	2E- 2g 2b-
2-VII	E-:maj6	79.532	.	voice	2E- 2g 2b-
=54	=54	=54	=54	=54	=54
*>A_interlude	*>A_interlude	*>A_interlude	*>A_interlude	*>A_interlude	*>A_interlude
*M4/4	*M4/4	*M4/4	*M4/4	*M4/4	*M4/4
2I	F:maj	79.714	newline	guitar	2F 2a 2cc
2V	C:maj	80.457	.	guitar	2C 2e 2g
=55	=55	=55	=55	=55	=55
2IV	B-:maj	81.2	.	guitar	2B- 2dd 2ff
2V	C:maj	81.943	.	guitar	2C 2e 2g
=56	=56	=56	=56	=56	=56
2IV	B-:maj	82.686	.	guitar	2B- 2dd 2ff
2V	C:maj	83.429	.	guitar	2C 2e 2g
=57	=57	=57	=57	=57	=57
1I	F:maj	84.172	.	guitar	1F 1a 1cc
=58	=58	=58	=58	=58	=58
1I	F:maj	85.658	.	guitar	1F 1a 1cc
=59	=59	=59	=59	=59	=59
*>E_interlude	*>E_interlude	*>E_interlude	*>E_interlude	*>E_interlude	*>E_interlude
2.IV	B-:maj	87.144	newline	voice	2B- 2dd 2ff
4IVb	B-:maj(9)/3	88.245	.	voice	4b- 4D 4ff
=60	=60	=60	=60	=60	=60
2IVb	B-:maj(9)/3	88.611	.	voice	2b- 2D 2ff
2V	C:maj	89.345	.	voice	2C 2e 2g
=61	=61	=61	=61	=61	=61
1I7	F:maj13	90.078	.	voice	1F 1a 1cc 1ee
=62	=62	=62	=62	=62	=62
1I7	F:maj13	91.545	.	voice	1F 1a 1cc 1ee
=63	=63	=63	=63	=63	=63
1I7	F:maj13	93.011	.	voice	1F 1a 1cc 1ee
=64	=64	=64	=64	=64	=64
1I7	F:maj13	94.478	.	voice	1F 1a 1cc 1ee
=65	=65	=65	=65	=65	=65
1vi	D:min	95.945	newline	voice	1D 1f 1a
=66	=66	=66	=66	=66	=66
1vi	D:min	97.454	.	voice	1D 1f 1a
=67	=67	=67	=67	=67	=67
1vi	D:min	98.963	.	voice	1D 1f 1a
=68	=68	=68	=68	=68	=68
1vi	D:min	100.473	.	voice	1D 1f 1a
=69	=69	=69	=69	=69	=69
1vi	D:min	101.982	newline	voice	1D 1f 1a
=70	=70	=70	=70	=70	=70
1vi	D:min	103.582	.	voice	1D 1f 1a
=71	=71	=71	=71	=71	=71
1IIIc	A:maj/5	105.183	.	voice	1a 1cc# 1E
=72	=72	=72	=72	=72	=72
1III7	A:7(#9)	106.783	.	voice	1A 1cc# 1ee 1gg
=73	=73	=73	=73	=73	=73
*>F_solo	*>F_solo	*>F_solo	*>F_solo	*>F_solo	*>F_solo
1vi	D:min	108.384	newline	voice	1D 1f 1a
=74	=74	=74	=74	=74	=74
1vi	D:min	109.878	.	voice	1D 1f 1a
=75	=75	=75	=75	=75	=75
1vi	D:min	111.373	.	voice	1D 1f 1a
=76	=76	=76	=76	=76	=76
1vi	D:min	112.868	.	voice	1D 1f 1a
=77	=77	=77	=77	=77	=77
1-III	A-:maj	114.363	newline	voice	1A- 1cc 1ee-
=78	=78	=78	=78	=78	=78
1-III	A-:maj	115.849	.	voice	1A- 1cc 1ee-
=79	=79	=79	=79	=79	=79
1-III	A-:maj	117.335	.	voice	1A- 1cc 1ee-
=80	=80	=80	=80	=80	=80
1-III	A-:maj	118.821	.	voice	1A- 1cc 1ee-
=81	=81	=81	=81	=81	=81
1vi	D:min	120.306	newline	voice	1D 1f 1a
=82	=82	=82	=82	=82	=82
1vi	D:min	121.832	.	voice	1D 1f 1a
=83	=83	=83	=83	=83	=83
1vi	D:min	123.358	.	voice	1D 1f 1a
=84	=84	=84	=84	=84	=84
1vi	D:min	124.884	.	voice	1D 1f 1a
=85	=85	=85	=85	=85	=85
1vi	D:min	126.409	newline	voice	1D 1f 1a
=86	=86	=86	=86	=86	=86
1vi	D:min	127.913	.	voice	1D 1f 1a
=87	=87	=87	=87	=87	=87
1vi	D:min	129.416	.	voice	1D 1f 1a
=88	=88	=88	=88	=88	=88
1vi	D:min	130.92	.	voice	1D 1f 1a
=89	=89	=89	=89	=89	=89
1vic	D:min/5	132.423	newline	voice	1d 1f 1A
=90	=90	=90	=90	=90	=90
1vic	D:min/5	133.965	.	voice	1d 1f 1A
=91	=91	=91	=91	=91	=91
1IV7	B-:maj7	135.506	.	voice	1B- 1dd 1ff 1aa
=92	=92	=92	=92	=92	=92
1IV7	B-:maj7	137.047	.	voice	1B- 1dd 1ff 1aa
=93	=93	=93	=93	=93	=93
1-VII	E-:maj	138.588	newline	voice guitar	1E- 1g 1b-
=94	=94	=94	=94	=94	=94
1-VII	E-:sus4	140.055	.	voice guitar	1E- 1g 1b-
=95	=95	=95	=95	=95	=95
1V7	C:7	141.522	.	voice guitar	1C 1e 1g 1b-
=96	=96	=96	=96	=96	=96
*>B_verse	*>B_verse	*>B_verse	*>B_verse	*>B_verse	*>B_verse
1I	F:maj	142.988	newline	voice guitar	1F 1a 1cc
=97	=97	=97	=97	=97	=97
1I	F:maj	144.502	.	voice guitar	1F 1a 1cc
=98	=98	=98	=98	=98	=98
1IV	B-:maj	146.015	.	voice guitar	1B- 1dd 1ff
=99	=99	=99	=99	=99	=99
1IV	B-:maj	147.529	.	voice guitar	1B- 1dd 1ff
=100	=100	=100	=100	=100	=100
1IV	B-:maj	149.042	newline	voice guitar	1B- 1dd 1ff
=101	=101	=101	=101	=101	=101
1I	F:maj	150.526	.	voice guitar	1F 1a 1cc
=102	=102	=102	=102	=102	=102
1V	C:maj	152.011	.	voice guitar	1C 1e 1g
=103	=103	=103	=103	=103	=103
2I	F:maj	153.495	.	voice guitar	2F 2a 2cc
2Im7	F:7	154.237	.	voice guitar	2F 2a 2cc 2ee
=104	=104	=104	=104	=104	=104
1IV	B-:maj	154.979	newline	voice guitar	1B- 1dd 1ff
=105	=105	=105	=105	=105	=105
1I	F:maj	156.47	.	voice guitar	1F 1a 1cc
=106	=106	=106	=106	=106	=106
1V	C:maj	157.961	.	voice guitar	1C 1e 1g
=107	=107	=107	=107	=107	=107
*>C2_outro	*>C2_outro	*>C2_outro	*>C2_outro	*>C2_outro	*>C2_outro
1I	F:maj	159.451	newline	voice guitar	1F 1a 1cc
=108	=108	=108	=108	=108	=108
1I	F:maj	160.911	.	voice guitar	1F 1a 1cc
=109	=109	=109	=109	=109	=109
1IV	B-:maj	162.371	.	voice guitar	1B- 1dd 1ff
=110	=110	=110	=110	=110	=110
1IV	B-:maj	163.831	.	voice guitar	1B- 1dd 1ff
=111	=111	=111	=111	=111	=111
1I	F:maj	165.291	newline	voice	1F 1a 1cc
=112	=112	=112	=112	=112	=112
1I	F:maj	166.687	.	voice	1F 1a 1cc
=113	=113	=113	=113	=113	=113
1IV	B-:maj	168.082	.	voice	1B- 1dd 1ff
=114	=114	=114	=114	=114	=114
1IV	B-:maj	169.478	.	voice	1B- 1dd 1ff
=115	=115	=115	=115	=115	=115
*>A_outro	*>A_outro	*>A_outro	*>A_outro	*>A_outro	*>A_outro
2I	F:maj	170.873	newline	guitar	2F 2a 2cc
2V	C:maj	171.573	.	guitar	2C 2e 2g
=116	=116	=116	=116	=116	=116
2IV	B-:maj	172.272	.	guitar	2B- 2dd 2ff
2V	C:maj	172.972	.	guitar	2C 2e 2g
=117	=117	=117	=117	=117	=117
2IV	B-:maj	173.672	.	guitar	2B- 2dd 2ff
2V	C:maj	174.371	.	guitar	2C 2e 2g
=118	=118	=118	=118	=118	=118
*M6/4	*M6/4	*M6/4	*M6/4	*M6/4	*M6/4
1.V	C:maj	175.071	.	guitar	1C 1e 1g
=119	=119	=119	=119	=119	=119
*M4/4	*M4/4	*M4/4	*M4/4	*M4/4	*M4/4
1I	F:maj	177.17	newline	guitar	1F 1a 1cc
1r;	N	178.55	.	r	1r;
1r;	N	181.369	.	r	1r;
*-	*-	*-	*-	*-	*-
!!!OTL: Silver Threads And Golden Needles
!!!COC: The Cowsills
!!!BillboardChartDate: 1969/10/18
!!!BillboardPeak: 74
!!!BillboardWeeksOnChart: 7
!!!SampleTargetRank: 83
!!!SampleActualRank: 84
!!!SampleID#: 0474
!!!RDF**harmony: **recip + pitch class of root + harmonic quality
!!!RDF**harte: Chris Harte's syntax, used by MIREX
!!!RDF**phrase: newline = linebreak in original McGill transcription
!!!RDF**timestamp: McGill audio timestamp in seconds
!!!RDF**leadinstrument: original McGill primary instrumentation annotation
!!!RDT: 2017/01/12/
!!!ENC: Nathaniel Condit-Schultz
!!!EST: Awating manual error checking and editing.
